!!!OTL: "Der Landsturm" HUI AUF SCHREIT MAN DURCH DAS LAND
!!!ARE: Europa, Mitteleuropa, Tirol
!!!SCT: Z1138
!!!YEM: Copyright 1995, estate of Helmut Schaffrath.
**kern
*ICvox
*Ivox
*M2/4
*k[b-e-]
*B-:
{8ff
=1
4.ff
8dd
=2
4.dd}
{8dd
=3
4cc
8f
8f
=4
4.b-}
{8f
=5
8f
8dd
8b-
8f
=6
8f
8dd
8b-}
{8f
=7
8f
8ee-
8cc
8f
=8
4.b-}
{8ff
=9
4ff
8dd
8dd
=10
4.dd}
{8dd
=11
4cc
8f
8f
=12
4.b-}
{8f
=13
8f
8dd
8b-
8f
=14
8f
8dd
8b-}
{8f
=15
8f
8ee-
8cc
8f
=16
4b-
4r}
=17
{8cc
8cc
8f
8f
=18
8b-
8b-
4b-}
=19
{8cc
8cc
8f
8f
=20
8f
8b-
4b-}
=21
{8f
8dd
8b-
8f
=22
8f
8dd
8b-}
{8f
=23
8f
8ee-
8cc
8f
=24
2b-}
=25
{8cc
8cc
8f
8f
=26
8b-
8b-
4b-}
=27
{8cc
8cc
8f
8f
=28
8f
8b-
8b-}
==
!!!AGN: Vaterland und Wehr
!!!ONB: ESAC (Essen Associative Code) Database: ZUCCAL
!!!AMT: simple duple
!!!AIN: vox
!!!EED: Helmut Schaffrath
!!!EEV: 1.0
*-
!!!OTL: "Neckerei" STEH NUR AUF TYROLERBU
!!!ARE: Europa, Mitteleuropa, Tirol
!!!SCT: Z1205
!!!YEM: Copyright 1995, estate of Helmut Schaffrath.
**kern
*ICvox
*Ivox
*M4/4
*k[f#c#]
*D:
{8.f#
16g
=1
4a
8.f#
16g
4a
8.f#
16g
=2
4a
8ff#
8ee
4dd}
{8.a
16a
=3
4a
8.gg
16ff#
4ee
8.ff#
16ee
=4
2.dd}
{8.f#
16g
=5
4a
8.f#
16g
4a
8.f#
16g
=6
4a
8ff#
8ee
4dd}
{8.a
16a
=7
4a
8.gg
16ff#
4ee
8.ff#
16ee
=8
2.dd}
{4a
=9
4g
8.ee
16dd
4cc#
4a
=10
4a
8.ff#
16ee
4dd}
{8a
8a
=11
8g
8a
8ee
8dd
4cc#
4a
=12
4a
8.ff#
16ee
4dd}
{8.f#
16g
=13
8a
8g
8f#
8g
8a
8g
8f#
8g
=14
4a
8.ff#
16ee
4dd}
{8.a
16a
=15
4a
8.gg
16ff#
4ee
8.ff#
16ee
=16
2.dd}
==
!!!AGN: Liebes - Lied
!!!ONB: ESAC (Essen Associative Code) Database: ZUCCAL
!!!AMT: simple quadruple
!!!AIN: vox
!!!EED: Helmut Schaffrath
!!!EEV: 1.0
*-
!!!OTL: KUMMT A VOGERL GEFLOGEN
!!!ARE: Europa, Mitteleuropa, Tirol
!!!SCT: Z0265
!!!YEM: Copyright 1995, estate of Helmut Schaffrath.
**kern
*ICvox
*Ivox
*M6/8
*k[b-]
*F:
{16a
16b-
=1
8cc
8a
8a
8a
8g
16g
16a
=2
8b-
8g
8g
8g
8a}
{16a
16b-
=3
8cc
8a
8a
16a
16g
8dd
16dd
16dd
=4
16dd
16e
8e
8e
4f}
{16a
16b-
=5
16cc
16ff
8cc
16a
16f
16e
16dd
8cc
16b-
16g
=6
16e
16dd
8cc
16b-
16g
4a}
{16a
16b-
=7
16cc
16ff
8cc
16a
16f
16e
16dd
8cc
16b-
16g
=8
16e
16dd
8cc
16b-
16g
4f}
==
!!!AGN: lyrisches Lied, Romanze
!!!ONB: ESAC (Essen Associative Code) Database: ZUCCAL
!!!AMT: compound duple
!!!AIN: vox
!!!EED: Helmut Schaffrath
!!!EEV: 1.0
*-
!!!OTL: "Der Schuetze" JUCHHE FRISCH AF WENNS SCHIASSN GFRAIT
!!!ARE: Europa, Mitteleuropa, Tirol
!!!SCT: Z1298
!!!YEM: Copyright 1995, estate of Helmut Schaffrath.
**kern
*ICvox
*Ivox
*M2/4
*k[f#c#g#]
*A:
{8e
=1
8.a
16a
8.aa
16ff#
=2
8ee
16ee
16cc#
8.ee}
{16cc#
=3
16cc#
16b
8b
16b
16g#
8g#
=4
4a
8.r}
{16e
=5
8a
8a
8.aa
16ff#
=6
8ee
16ee
16cc#
8.ee}
{16cc#
=7
16cc#
16b
8b
16b
16g#
8g#
=8
4a
8r}
{8a
=9
16cc#
16b
16b
16dd
8.b
16b
=10
8cc#
16cc#
16ee
8.cc#}
{16cc#
=11
16cc#
16b
16b
16dd
8.b
16b
=12
8cc#
16cc#
16ee
8.cc#}
{16e
=13
8.a
16a
8.aa
16ff#
=14
8ee
16ee
16cc#
8.ee}
{16cc#
=15
16cc#
16b
8b
16b
16g#
8g#
=16
4a
8r}
==
!!!AGN: Jaeger - Lied
!!!ONB: ESAC (Essen Associative Code) Database: ZUCCAL
!!!AMT: simple duple
!!!AIN: vox
!!!EED: Helmut Schaffrath
!!!EEV: 1.0
*-
!!!OTL: "Auf der Alm" AUF DER ALMA, DA FINDEN DIE KUEH BESTE GRAS
!!!ARE: Europa, Mitteleuropa, Tirol
!!!SCT: Z1256
!!!YEM: Copyright 1995, estate of Helmut Schaffrath.
**kern
*ICvox
*Ivox
*M3/4
*k[f#]
*G:
{8d
8c
=1
8B
8d
4.b
8a
=2
8g
8B
4.d}
{8g
=3
8f#
8A
8c
8f#
8a
8f#
=4
8g
8B
4.d}
{8c
=5
8B
8d
4.b
8a
=6
8g
8B
4.d}
{8dd
=7
8ee
8dd
8cc
8d
8f#
8a
=8
4g
4r}
{8a
8g#
=9
8b
8a
4.g
8c#
=10
8d
8f#
4a}
{8dd
8dd
=11
8cc#
8b
8a
8g
8e
8c#
=12
4d
4dd}
{8a
8g#
=13
8b
8a
4.g
8c#
=14
8d
8f#
4.a}
{8dd
=15
8cc#
8b
8a
8g
8e
8c#
=16
4d
4r}
{8d
8c
=17
8B
8d
4.b
8a
=18
8g
8B
4.d}
{8g
=19
8f#
8A
8c
8f#
8a
8f#
=20
8g
8B
4.d}
{8c
=21
8B
8d
4.b
8a
=22
8g
8B
4.d}
{8dd
=23
8ee
8dd
8cc
8d
8f#
8a
=24
4g
4r}
==
!!!AGN: Liebes - Lied
!!!ONB: ESAC (Essen Associative Code) Database: ZUCCAL
!!!AMT: simple triple
!!!AIN: vox
!!!EED: Helmut Schaffrath
!!!EEV: 1.0
*-
!!!OTL: "Leichter Trost" AUF D ALM GEHN WIR AUSI
!!!ARE: Europa, Mitteleuropa, Tirol
!!!SCT: Z1206
!!!YEM: Copyright 1995, estate of Helmut Schaffrath.
**kern
*ICvox
*Ivox
*M2/4
*k[f#]
*G:
{8g
=1
8g
8b
8dd
8gg
=2
4dd
8b}
{8b
=3
8dd
8cc
8cc
8f#
=4
8g
8b}
{4dd
=5
8d
8aa
4ff#
=6
8dd
8bb}
{4gg
=7
8cc
8aa
8a
8ff#
=8
4gg
8r}
{8g
=9
8g
8b
8dd
8gg
=10
8dd
8b
8b}
{8b
=11
8dd
8cc
8cc
8f#
=12
8g
8b}
{4dd
=13
8cc
8aa
4ff#
=14
8dd
8bb}
{4gg
=15
8cc
8aa
8a
8ff#
=16
4.gg}
{8g
=17
8g
8e
8e
8e
=18
4cc
8cc}
{8cc
=19
8.f#
16f#
12f#
12g
12a
=20
4.b}
{8b
=21
8g
8b
8dd
8gg
=22
8.dd
16b
8b}
{8b
=23
8dd
8cc
8cc
8f#
=24
8g
8b}
{4dd
=25
8cc
8aa
4ff#
=26
8dd
8bb}
{4gg
=27
8cc
8aa
8a
8ff#
=28
4gg
8r}
{8g
=29
8g
8e
8e
8e
=30
4cc
8cc}
{8cc
=31
8.f#
16f#
12f#
12g
12a
=32
4.b}
{8b
=33
8g
8b
8dd
8gg
=34
8.dd
16b
8b}
{8b
=35
8dd
8cc
8cc
8f#
=36
8g
8b}
{4dd
=37
8cc
8aa
4ff#
=38
8dd
8bb}
{4gg
=39
8cc
8aa
8a
8ff#
=40
4gg
8r}
==
!!!AGN: Liebes - Lied
!!!ONB: ESAC (Essen Associative Code) Database: ZUCCAL
!!!AMT: simple duple
!!!AIN: vox
!!!EED: Helmut Schaffrath
!!!EEV: 1.0
*-
!!!OTL: Z LAUTERBACH HAB I MEI STRUMPF VERLOREN
!!!ARE: Europa, Mitteleuropa, Tirol
!!!SCT: Z1207
!!!YEM: Copyright 1995, estate of Helmut Schaffrath.
**kern
*ICvox
*Ivox
*M2/4
*k[]
*C:
=1
{8.G
16G
4c
=2
8.A
16A
4F
=3
8.G
16G
4G}
=4
{8.f
16f
4e
=5
8.d
16d
4G
=6
8G
16G
16e
4c}
=7
{8.G
16G
4c
=8
8.A
16A
4F
=9
8.G
16G
4G}
=10
{8.f
16f
4e
=11
8.d
16d
4G
=12
4c
4r}
==
!!!AGN: Liebes - Lied
!!!ONB: ESAC (Essen Associative Code) Database: ZUCCAL
!!!AMT: simple duple
!!!AIN: vox
!!!EED: Helmut Schaffrath
!!!EEV: 1.0
*-
!!!OTL: "Aelplers Fruehlingslied" SO KOMMT SIE  DENN SCHOEN WIEDER
!!!ARE: Europa, Mitteleuropa, Tirol
!!!SCT: Z1264
!!!YEM: Copyright 1995, estate of Helmut Schaffrath.
**kern
*ICvox
*Ivox
*M2/4
*k[f#c#]
*D:
{8A
=1
8.A
16A
8G
8E
=2
8F#
8A
8d}
{8A
=3
8A
8g
8e
8c#
=4
4d}
{4B
=5
4A
4C#
=6
4D
4r}
=7
{8A
8A
8G
8E
=8
8F#
8A
8d
8A
=9
8A
8f#
8e
8c#
=10
4d}
{4B
=11
4A
4C#
=12
4D
4r}
=13
{4e
4A
=14
8d
8f#
4a}
=15
{8e
8A
4e
=16
8f#
8A
4d}
=17
{4e
4A
=18
8d
8f#
4a}
=19
{8g
8A
4e
=20
4d
8r}
==
!!!AGN: Natur und Welt
!!!ONB: ESAC (Essen Associative Code) Database: ZUCCAL
!!!AMT: simple duple
!!!AIN: vox
!!!EED: Helmut Schaffrath
!!!EEV: 1.0
*-
!!!OTL: "Sehnsucht" MEIN SCHATZ IS NIT DA
!!!ARE: Europa, Mitteleuropa, Tirol
!!!SCT: Z1238
!!!YEM: Copyright 1995, estate of Helmut Schaffrath.
**kern
*ICvox
*Ivox
*M3/4
*k[]
*C:
{8.c
16d
=1
4e
4.e
8f
=2
8g
8e
4.a}
{8g
=3
8f
8d
4.g
8f
=4
8e
8d
8c
8B}
{8c
8d
=5
4e
4.e
8f
=6
8g
8e
4.a}
{8g
=7
8f
8d
4.g
8f
=8
2e}
{4g
=9
4g
8e
8cc
4g
=10
8a
8g
8f
8d
4B}
=11
{4g
8f
8dd
4b
=12
8cc
8ee
4dd
4cc}
=13
{4g
8e
8cc
4g
=14
8a
8g
8f
8d
4B}
=15
{4g
8f
8dd
4b
=16
2cc}
{[4cc
=17
4cc]
8.cc
16b
8.cc
16a
=18
8.g
16ee
4.ee}
{8cc
=19
8b
8f
4.d
8b
=20
8.cc
16b
8.cc
16dd
4ee}
=21
{4cc
8.cc
16b
8.cc
16a
=22
8g
8ee
4.ee}
{8cc
=23
8b
8f
8d
8b
8d
8b
=24
4cc
4r}
==
!!!AGN: Liebes - Lied
!! Die letzten 16 Takte werden auf die Silbe 'da' gesungen.
!!!ONB: ESAC (Essen Associative Code) Database: ZUCCAL
!!!AMT: simple triple
!!!AIN: vox
!!!EED: Helmut Schaffrath
!!!EEV: 1.0
*-
!!!OTL: "Der Teppichkraemer" VOM TYROL SAN MA AUSSA
!!!ARE: Europa, Mitteleuropa, Tirol
!!!SCT: Z1285
!!!YEM: Copyright 1995, estate of Helmut Schaffrath.
**kern
*ICvox
*Ivox
*M3/4
*k[f#]
*G:
{8.d
16d
=1
4g
4.g
8a
=2
4b
4b}
{4ee
=3
4dd
4cc
8cc
8f#
=4
2g}
{8.d
16d
=5
4g
4.g
8a
=6
4b
4b}
{4ee
=7
4dd
4cc
8cc
8f#
=8
4g
4r}
{8.a
16a
=9
4a
4a
8a
8a
=10
8a
8dd
4a}
{8f#
8g
=11
4a
4a
8a
8a
=12
8a
8ff#
4dd}
{8f#
8g
=13
4a
8dd
8a
8dd
8ff#
=14
4.aa}
{8ff#
8bb
8aa
=15
8.cc#
16bb
8aa
8gg
8b
8cc
=16
2dd}
{8.d
16d
=17
4g
4.g
8a
=18
4b
4b}
{4ee
=19
4dd
4cc
8cc
8f#
=20
2g}
==
!!!AGN: Handwerker -, Bauern - Lied
!!!ONB: ESAC (Essen Associative Code) Database: ZUCCAL
!!!AMT: simple triple
!!!AIN: vox
!!!EED: Helmut Schaffrath
!!!EEV: 1.0
*-
!!!OTL: "Der Alpjaeger" DIE JAEGER DIE HABN HALT A LEBEN
!!!ARE: Europa, Mitteleuropa, Tirol
!!!SCT: Z1286
!!!YEM: Copyright 1995, estate of Helmut Schaffrath.
**kern
*ICvox
*Ivox
*M3/4
*k[b-e-a-]
*E-:
=1
{4E-
8E-
8D
8E-
8F
=2
4G
8G
8F
8G
8A-
=3
2.c
=4
2.B-}
=5
{8B-
8g
8g
8e-
8e-
8B-
=6
8A-
8f
8f
8d
8F
8d
=7
2e-
4r}
=8
{4E-
8E-
8D
8E-
8F
=9
4G
8G
8F
8G
8A-
=10
2.c
=11
2.B-}
=12
{8B-
8g
8g
8e-
8e-
8B-
=13
8A-
8f
8f
8d
8F
8d
=14
2e-
4r}
=15
{4B-
8A-
8G
4A-
=16
8A-
8f
8f
8d
8d
8A-}
=17
{4c
8B-
8A-
4B-
=18
8B-
8g
8g
8e-
8e-
8G}
=19
{4B-
8A-
8G
4A-
=20
8A-
8f
8f
8d
8d
8B-}
=21
{8B-
8g
8g
8e-
8f
8d
=22
2e-
8r}
{8B-
=23
8B-
8b-
4g
8g
8B-
=24
8B-
8g
4.e-}
{8B-
=25
8B-
8a-
8f
8d
4f
=26
8B-
8f
4.d}
{8B-
=27
8B-
8b-
4.g
8B-
=28
8B-
8g
4.e-}
{8B-
=29
8B-
8a-
8f
8d
8B-
8d
=30
2.e-}
==
!!!AGN: Jaeger - Lied
!! Die letzten 8 Takte werden auf Silben gesungen.
!!!ONB: ESAC (Essen Associative Code) Database: ZUCCAL
!!!AMT: simple triple
!!!AIN: vox
!!!EED: Helmut Schaffrath
!!!EEV: 1.0
*-
!!!OTL: "Dem Nebenbuhler" MUSCHT MIR NICHTS NI UEBEL AUFA NEHMA
!!!ARE: Europa, Mitteleuropa, Tirol
!!!SCT: Z1221
!!!YEM: Copyright 1995, estate of Helmut Schaffrath.
**kern
*ICvox
*Ivox
*M3/4
*k[b-]
*F:
{8a
8b-
=1
4.cc
8ff
8ee
8dd
=2
8dd
8cc
8cc
8cc}
{8a
8a
=3
8cc
8b-
8b-
8b-
8g
8g
=4
8dd
8cc
8cc
8cc}
{8a
8b-
=5
4.cc
8ff
8ee
8dd
=6
8dd
8cc
4cc}
{8a
8cc
=7
8cc
8b-
8dd
8b-
8g
8e
=8
4f
4r}
{8a
8cc
=9
8cc
8b-
4b-
8.g
16ee
=10
4ff
4cc}
{8.a
16cc
=11
8cc
8b-
4b-
8.g
16ee
=12
4ff
4cc}
{8a
8b-
=13
4.cc
8ff
8ee
8dd
=14
8dd
8cc
4cc}
{8a
8cc
=15
8cc
8b-
8dd
8b-
8g
8e
=16
4f
4r}
==
!!!AGN: Liebes - Lied
!!!ONB: ESAC (Essen Associative Code) Database: ZUCCAL
!!!AMT: simple triple
!!!AIN: vox
!!!EED: Helmut Schaffrath
!!!EEV: 1.0
*-
!!!OTL: "Liebesgezaenke" UND MEI BUA DER THUT MAULE
!!!ARE: Europa, Mitteleuropa, Deutschland, Bayern; Tirol
!!!SCT: Z1245
!!!YEM: Copyright 1995, estate of Helmut Schaffrath.
**kern
*ICvox
*Ivox
*M3/4
*k[b-]
*F:
{8.ff
16dd
=1
8dd
8cc
8a
8c
4f
=2
8e
8g
8b-
8g}
{8ee
8dd
=3
8dd
8cc
8b-
8c
4e
=4
8f
8a
8cc
8a}
{8ff
8dd
=5
8dd
8cc
8a
8c
4f
=6
8e
8g
8b-
8g}
{8ee
8dd
=7
8dd
8cc
8b-
8c
4e
=8
2f}
==
!!!AGN: Liebes - Lied
!!!ONB: ESAC (Essen Associative Code) Database: ZUCCAL
!!!AMT: simple triple
!!!AIN: vox
!!!EED: Helmut Schaffrath
!!!EEV: 1.0
*-
!!!OTL: "Treue" BEI UNS IN TYROL
!!!ARE: Europa, Mitteleuropa, Tirol
!!!SCT: Z1244
!!!YEM: Copyright 1995, estate of Helmut Schaffrath.
**kern
*ICvox
*Ivox
*M3/4
*k[f#]
*G:
{8g
8a
=1
4b
4b
4b
=2
4cc
8cc
8b
8cc
8ee
=3
8dd
8b
4gg
4r
=4
2r}
{8g
8a
=5
4b
4b
4b
=6
4cc
8cc
8b
8cc
8ee
=7
2dd
4r
=8
2r}
{8g
8a
=9
4b
4b
4b
=10
8dd
8cc
8cc
8b
8cc
8ee
=11
8dd
8b
4gg
4r
=12
2r}
{8g
8a
=13
4b
4b
4b
=14
8dd
8cc
8b
8a
8g
8f#
=15
2g
4r
=16
2r}
{4dd
=17
4.dd
8dd
4dd
=18
4dd
4dd
4cc
=19
4b
4a
4r
=20
2r}
{4dd
=21
4.dd
8dd
4dd
=22
4dd
8dd
8ee
8dd
8cc
=23
2b
4r
=24
2r}
{8g
8a
=25
4b
4b
4b
=26
8dd
8cc
8cc
8b
8cc
8ee
=27
8dd
8b
4gg
4r
=28
2r}
{8g
8a
=29
4b
4b
4b
=30
8dd
8cc
8b
8a
8g
8f#
=31
2g}
==
!!!AGN: Liebes - Lied
!!!ONB: ESAC (Essen Associative Code) Database: ZUCCAL
!!!AMT: simple triple
!!!AIN: vox
!!!EED: Helmut Schaffrath
!!!EEV: 1.0
*-
